X: 20542
Q: "Moderate."
M: 6/8
L: 1/8
K: G
[|\
d |\
d2c (A>B)c | d2B G2d | d2c (A>B)c | d2B G2d |\
e2c g2e | d2B g2d | (d>e)d (dc)B | (B3 {cB}A2) "^D.C."z |]


